jsapp/svg-icons/menu.svg

<?xml version="1.0" encoding="UTF-8"?>
<svg width="40px" height="40px" viewBox="0 0 40 40" version="1.1" xmlns="http://www.w3.org/2000/svg" xmlns:xlink="http://www.w3.org/1999/xlink">
    <!-- Generator: Sketch 50.2 (55047) - http://www.bohemiancoding.com/sketch -->
    <title>Icons/menu</title>
    <desc>Created with Sketch.</desc>
    <defs>
        <path d="M28,15 L12,15 L12,13 L28,13 L28,15 Z M28,18.999 L12,18.999 L12,16.999 L28,16.999 L28,18.999 Z M28,23 L12,23 L12,21 L28,21 L28,23 Z M28,27 L12,27 L12,25 L28,25 L28,27 Z" id="path-1"></path>
    </defs>
    <g id="Icons/menu" stroke="none" stroke-width="1" fill="none" fill-rule="evenodd">
        <mask id="mask-2" fill="white">
            <use xlink:href="#path-1"></use>
        </mask>
        <use id="Mask" fill="#000000" xlink:href="#path-1"></use>
    </g>
</svg>

<svg height="40" viewBox="0 0 40 40" width="40" xmlns="http://www.w3.org/2000/svg"><path d="m28 15h-16v-2h16zm0 3.999h-16v-2h16zm0 4.001h-16v-2h16zm0 4h-16v-2h16z" fill-rule="evenodd"/></svg>
